X:1
T:Title
%%score { ( 1 3 ) | 2 }
L:1/8
M:4/4
K:Ab
V:1 treble nm="Grand Piano"
V:3 treble 
V:2 bass 
V:1
 z4 z2[Q:1/4=104] [CE]2 | [CE]2 [Ec][DB] [CA]2 [=EG]2 | F2 A2 E2 [EA]2 | [EB]2 [GB]2 [GB]2 [Ac]2 | %4
[M:3/4] [GB]6 |[M:1/4] [Ac]2 |[M:4/4] [Ad]2 ed c2 A2 | B2 cB A2 _E2 | z2 F2 [FB]2 B2 | %9
[M:3/4] [CA]6 |[M:1/4] [Ec]2 |[M:4/4] [Ec]2 [CE]2 [DF]2 [DA]2 | [CA]6 [EA]2 | %13
 [EB]2 [EB]2 [=DB]2 [Dc]2 |[M:3/4] B6 |[M:1/4] c2 |[M:4/4] [Fd]2 [Fd]2 [Ec]2 [DB]2 | %17
 [CA]2 [EG]2 F2 A2 | E2 A2 [DA]2 G2 |[M:3/4] [CA]6 |] %20
V:2
 z4 z2 [A,,A,]2 | [A,,A,]2 [A,,E,]2 [A,,E,]2 [C,B,]2 | [D,A,]2 [F,A,D]2 [A,C]2 [C,A,]2 | %3
 [E,G,]2 [E,B,]2 [E,E]2 [E,E]2 |[M:3/4] [E,E]6 |[M:1/4] [A,E]2 | %6
[M:4/4] [F,D]2[K:treble] [G,B,E]2 [A,EA]2[K:bass] [A,CE]2 | [G,C=E]2 [C,C]2 [F,CF]2 [C,A,]2 | %8
 [D,A,D]2 [B,,B,][C,=A,] .[D,B,]2 .[E,G,E]2 |[M:3/4] [A,,A,]6 |[M:1/4] [A,,A,]2 | %11
[M:4/4] [A,,A,]2 [A,,A,]2 [D,A,]2 [D,F,]2 | [A,,E,]6 [C,A,]2 | [E,G,]2 [E,G,]2 [B,,F,]2 [B,,A,]2 | %14
[M:3/4] [E,G,E]6 |[M:1/4] [A,E]2 |[M:4/4] [D,A,]2 [D,A,]2 [A,,A,]2 [E,G,]2 | %17
 [F,A,]2 [C,A,]2 [D,A,D]2 [D,F,D]2 | [E,A,C]2 [F,A,C]2 [B,,F,]2 [E,D]2 |[M:3/4] [A,,E,]6 |] %20
V:3
 x8 | x8 | x8 | x8 |[M:3/4] x6 |[M:1/4] x2 |[M:4/4] x8 | z2 =E2 z4 | F2 dc z F, z D |[M:3/4] x6 | %10
[M:1/4] x2 |[M:4/4] x8 | x8 | x8 |[M:3/4] x6 |[M:1/4] x2 |[M:4/4] x8 | x8 | x8 |[M:3/4] x6 |] %20

